icons/old-capitol.svg

<?xml version="1.0" encoding="UTF-8"?><svg id="uuid-c0a3b507-72b7-41bc-bec0-d8b0b40938eb" xmlns="http://www.w3.org/2000/svg" viewBox="0 0 50 50"><path d="M48.42,19.23h-3.3c-.28,0-.5,.22-.5,.5v3.01h-13.65v-3.01c0-.28-.22-.5-.5-.5h-1.62v-3.83c0-.25-.19-.45-.43-.49v-2.77h.6c.28,0,.5-.22,.5-.5s-.22-.5-.5-.5h-.68c-.19-1.76-1.46-3.16-3.08-3.4v-1.92h3.26c.28,0,.5-.22,.5-.5V2.98c0-.28-.22-.5-.5-.5h-3.76c-.28,0-.5,.22-.5,.5V7.74c-1.62,.25-2.89,1.64-3.08,3.4h-.68c-.28,0-.5,.22-.5,.5s.22,.5,.5,.5h.6v2.77c-.24,.03-.43,.23-.43,.49v3.83h-1.62c-.28,0-.5,.22-.5,.5v3.01H4.89v-3.01c0-.28-.22-.5-.5-.5H1.08c-.28,0-.5,.22-.5,.5v26.79c0,.28,.22,.5,.5,.5H48.42c.28,0,.5-.22,.5-.5V19.73c0-.28-.22-.5-.5-.5Zm-.5,1v7.17h-2.3v-7.17h2.3Zm-3.3,3.51v4.16c0,.28,.22,.5,.5,.5h2.8v1.08h-11.34l-5.61-2.94v-2.8h13.65ZM22.09,12.14h5.33v2.76h-5.33v-2.76Zm-.43,3.76h6.19v3.33h-6.19v-3.33Zm-.5,4.33h8.81v5.79l-4.98-2.61c-.15-.08-.32-.08-.46,0l-4.98,2.61v-5.79h1.62Zm11.41,9.25H15.08l9.67-5.06,9.67,5.06h-1.86Zm-18.5,1h2v15.54h-2v-15.54Zm3,0h2.53v15.54h-2.53v-15.54Zm3.53,0h2v15.54h-2v-15.54Zm3,0h2.28v15.54h-2.28v-15.54Zm3.28,0h2v15.54h-2v-15.54Zm3,0h2.19v15.54h-2.19v-15.54Zm3.19,0h2v15.54h-2v-15.54ZM25.25,3.48h2.76v1.34h-2.76v-1.34Zm-.5,5.21c1.29,0,2.37,1.04,2.58,2.41h-5.16c.21-1.37,1.29-2.41,2.58-2.41Zm-6.21,15.06v2.8l-5.61,2.94H1.58v-1.08h2.8c.28,0,.5-.22,.5-.5v-4.16h13.65Zm-14.65-3.51v7.17H1.58v-7.17H3.89ZM1.58,30.48H13.06v15.54H1.58v-15.54Zm46.33,15.54h-11.86v-15.54h11.86v15.54Z"/><path d="M9.56,32.23H5.44c-.28,0-.5,.22-.5,.5v4.12c0,.28,.22,.5,.5,.5h4.12c.28,0,.5-.22,.5-.5v-4.12c0-.28-.22-.5-.5-.5Zm-.5,4.12h-3.12v-3.12h3.12v3.12Z"/><path d="M9.56,39.15H5.44c-.28,0-.5,.22-.5,.5v4.12c0,.28,.22,.5,.5,.5h4.12c.28,0,.5-.22,.5-.5v-4.12c0-.28-.22-.5-.5-.5Zm-.5,4.12h-3.12v-3.12h3.12v3.12Z"/><path d="M40.12,37.36h4.12c.28,0,.5-.22,.5-.5v-4.12c0-.28-.22-.5-.5-.5h-4.12c-.28,0-.5,.22-.5,.5v4.12c0,.28,.22,.5,.5,.5Zm.5-4.12h3.12v3.12h-3.12v-3.12Z"/><path d="M40.12,44.27h4.12c.28,0,.5-.22,.5-.5v-4.12c0-.28-.22-.5-.5-.5h-4.12c-.28,0-.5,.22-.5,.5v4.12c0,.28,.22,.5,.5,.5Zm.5-4.12h3.12v3.12h-3.12v-3.12Z"/></svg>

<svg id="f3af3d9f-7636-4229-9977-a3d61bf5ebe6" data-name="ICONS" xmlns="http://www.w3.org/2000/svg" viewBox="0 0 50 50"><path d="M48.42,19.23H45.11a.51.51,0,0,0-.5.5v3H31v-3a.5.5,0,0,0-.5-.5H28.85V15.4a.49.49,0,0,0-.44-.48V12.14H29a.5.5,0,0,0,.5-.5.5.5,0,0,0-.5-.5h-.68a3.77,3.77,0,0,0-3.08-3.4V5.82h3.26a.5.5,0,0,0,.5-.5V3a.5.5,0,0,0-.5-.5H24.75a.5.5,0,0,0-.5.5V7.74a3.77,3.77,0,0,0-3.08,3.4h-.68a.5.5,0,0,0-.5.5.5.5,0,0,0,.5.5h.6v2.78a.49.49,0,0,0-.44.48v3.83H19a.5.5,0,0,0-.5.5v3H4.89v-3a.51.51,0,0,0-.5-.5H1.08a.51.51,0,0,0-.5.5V46.52a.5.5,0,0,0,.5.5H48.42a.5.5,0,0,0,.5-.5V19.73A.51.51,0,0,0,48.42,19.23Zm-.5,1V27.4H45.61V20.23Zm-3.31,3.51V27.9a.5.5,0,0,0,.5.5h2.81v1.08H36.57L31,26.55V23.74ZM22.09,12.14h5.32V14.9H22.09Zm-.44,3.76h6.2v3.33h-6.2Zm-.5,4.33H30V26l-5-2.6a.47.47,0,0,0-.46,0l-5,2.6V20.23Zm11.41,9.25H15.08l9.67-5.06,9.67,5.06Zm-18.5,1h2V46h-2Zm3,0h2.53V46H17.06Zm3.53,0h2V46h-2Zm3,0h2.28V46H23.59Zm3.28,0h2V46h-2Zm3,0h2.19V46H29.87Zm3.19,0h2V46h-2Zm-7.81-27H28V4.82H25.25V3.48Zm-.5,5.21a2.71,2.71,0,0,1,2.58,2.41H22.17A2.71,2.71,0,0,1,24.75,8.69ZM18.54,23.74v2.81l-5.61,2.93H1.58V28.4H4.39a.5.5,0,0,0,.5-.5V23.74ZM3.89,20.23V27.4H1.58V20.23ZM1.58,30.48H13.06V46H1.58ZM47.92,46H36.06V30.48H47.92Z"/><path d="M9.56,32.23H5.44a.5.5,0,0,0-.5.5v4.13a.5.5,0,0,0,.5.5H9.56a.5.5,0,0,0,.5-.5V32.73A.5.5,0,0,0,9.56,32.23Zm-.5,4.13H5.94V33.23H9.06Z"/><path d="M9.56,39.15H5.44a.5.5,0,0,0-.5.5v4.12a.5.5,0,0,0,.5.5H9.56a.5.5,0,0,0,.5-.5V39.65A.5.5,0,0,0,9.56,39.15Zm-.5,4.12H5.94V40.15H9.06Z"/><path d="M40.12,37.36h4.13a.5.5,0,0,0,.5-.5V32.73a.5.5,0,0,0-.5-.5H40.12a.51.51,0,0,0-.5.5v4.13A.51.51,0,0,0,40.12,37.36Zm.5-4.13h3.13v3.13H40.62Z"/><path d="M40.12,44.27h4.13a.5.5,0,0,0,.5-.5V39.65a.5.5,0,0,0-.5-.5H40.12a.5.5,0,0,0-.5.5v4.12A.5.5,0,0,0,40.12,44.27Zm.5-4.12h3.13v3.12H40.62Z"/></svg>
